app/images/settings.svg

<?xml version="1.0" encoding="UTF-8"?>
<svg width="20px" height="20px" viewBox="0 0 20 20" version="1.1" xmlns="http://www.w3.org/2000/svg" xmlns:xlink="http://www.w3.org/1999/xlink">
    <!-- Generator: Sketch 47 (45396) - http://www.bohemiancoding.com/sketch -->
    <title>settings</title>
    <desc>Created with Sketch.</desc>
    <defs>
        <polygon id="path-1" points="20 10 20 19.9998 0 19.9998 0 10 0 0.0002 20 0.0002"></polygon>
    </defs>
    <g id="MetaMascara-v2" stroke="none" stroke-width="1" fill="none" fill-rule="evenodd">
        <g id="account-dropdown-top-bar-IXD" transform="translate(-25.000000, -826.000000)">
            <g id="Group-6" transform="translate(4.000000, 646.000000)">
                <g id="settings" transform="translate(21.000000, 180.000000)">
                    <mask id="mask-2" fill="white">
                        <use xlink:href="#path-1"></use>
                    </mask>
                    <g id="Clip-2"></g>
                    <path d="M10,13.6602 C7.979,13.6602 6.34,12.0212 6.34,10.0002 C6.34,7.9782 7.979,6.3402 10,6.3402 C12.021,6.3402 13.66,7.9782 13.66,10.0002 C13.66,12.0212 12.021,13.6602 10,13.6602 L10,13.6602 Z M19.157,11.8112 C19.53,11.8112 19.878,11.5092 19.929,11.1392 C19.929,11.1392 20,10.6182 20,10.0002 C20,9.3822 19.929,8.8622 19.929,8.8622 C19.878,8.4922 19.53,8.1892 19.157,8.1892 L17.228,8.1892 C16.854,8.1892 16.466,7.9512 16.365,7.6602 C16.265,7.3682 16.127,6.4352 16.391,6.1712 L17.755,4.8072 C18.019,4.5432 18.039,4.0922 17.8,3.8052 L16.195,2.2002 C15.908,1.9602 15.458,1.9812 15.193,2.2452 L13.829,3.6092 C13.565,3.8732 13.125,3.9802 12.852,3.8462 C12.578,3.7122 11.812,3.1462 11.812,2.7732 L11.812,0.8432 C11.812,0.4702 11.509,0.1222 11.139,0.0722 C11.139,0.0722 10.619,0.0002 10,0.0002 C9.382,0.0002 8.862,0.0722 8.862,0.0722 C8.492,0.1222 8.189,0.4702 8.189,0.8432 L8.189,2.7732 C8.189,3.1462 7.951,3.5352 7.66,3.6352 C7.369,3.7352 6.435,3.8732 6.171,3.6092 L4.807,2.2452 C4.542,1.9812 4.092,1.9612 3.805,2.2002 L2.2,3.8052 C1.96,4.0922 1.981,4.5432 2.245,4.8072 L3.609,6.1712 C3.873,6.4352 3.98,6.8752 3.846,7.1482 C3.711,7.4222 3.146,8.1892 2.773,8.1892 L0.843,8.1892 C0.47,8.1892 0.123,8.4922 0.072,8.8622 C0.072,8.8622 0,9.3822 0,10.0002 C0,10.6182 0.072,11.1392 0.072,11.1392 C0.123,11.5092 0.47,11.8112 0.843,11.8112 L2.773,11.8112 C3.146,11.8112 3.535,12.0502 3.635,12.3412 C3.735,12.6322 3.874,13.5642 3.609,13.8292 L2.246,15.1932 C1.981,15.4572 1.961,15.9082 2.2,16.1952 L3.805,17.8002 C4.092,18.0392 4.542,18.0192 4.807,17.7552 L6.171,16.3902 C6.435,16.1272 6.875,16.0202 7.148,16.1542 C7.422,16.2882 8.189,16.8532 8.189,17.2272 L8.189,19.1572 C8.189,19.5302 8.492,19.8782 8.862,19.9292 C8.862,19.9292 9.382,20.0002 10,20.0002 C10.619,20.0002 11.139,19.9292 11.139,19.9292 C11.509,19.8772 11.812,19.5302 11.812,19.1572 L11.812,17.2272 C11.812,16.8532 12.05,16.4662 12.341,16.3652 C12.632,16.2642 13.565,16.1272 13.829,16.3902 L15.193,17.7552 C15.458,18.0182 15.908,18.0392 16.195,17.8002 L17.8,16.1952 C18.039,15.9082 18.02,15.4582 17.755,15.1932 L16.391,13.8292 C16.127,13.5652 16.021,13.1252 16.154,12.8512 C16.288,12.5782 16.854,11.8112 17.228,11.8112 L19.157,11.8112 Z" id="Fill-1" fill="#B3B3B3" mask="url(#mask-2)"></path>
                </g>
            </g>
        </g>
    </g>
</svg>

<svg height="20" viewBox="0 0 20 20" width="20" xmlns="http://www.w3.org/2000/svg" xmlns:xlink="http://www.w3.org/1999/xlink"><mask id="a" fill="#fff"><path d="m20 10v9.9998h-20v-9.9998-9.9998h20z" fill="#fff" fill-rule="evenodd"/></mask><path d="m10 13.6602c-2.021 0-3.66-1.639-3.66-3.66 0-2.022 1.639-3.66 3.66-3.66s3.66 1.638 3.66 3.66c0 2.021-1.639 3.66-3.66 3.66zm9.157-1.849c.373 0 .721-.302.772-.672 0 0 .071-.521.071-1.139s-.071-1.138-.071-1.138c-.051-.37-.399-.673-.772-.673h-1.929c-.374 0-.762-.238-.863-.529-.1-.292-.238-1.225.026-1.489l1.364-1.364c.264-.264.284-.715.045-1.002l-1.605-1.605c-.287-.24-.737-.219-1.002.045l-1.364 1.364c-.264.264-.704.371-.977.237-.274-.134-1.04-.7-1.04-1.073v-1.93c0-.373-.303-.721-.673-.771 0 0-.52-.072-1.139-.072-.618 0-1.138.072-1.138.072-.37.05-.673.398-.673.771v1.93c0 .373-.238.762-.529.862s-1.225.238-1.489-.026l-1.364-1.364c-.265-.264-.715-.284-1.002-.045l-1.605 1.605c-.24.287-.219.738.045 1.002l1.364 1.364c.264.264.371.704.237.977-.135.274-.7 1.041-1.073 1.041h-1.93c-.373 0-.72.303-.771.673 0 0-.072.52-.072 1.138s.072 1.139.072 1.139c.051.37.398.672.771.672h1.93c.373 0 .762.239.862.53s.239 1.223-.026 1.488l-1.363 1.364c-.265.264-.285.715-.046 1.002l1.605 1.605c.287.239.737.219 1.002-.045l1.364-1.365c.264-.263.704-.37.977-.236.274.134 1.041.699 1.041 1.073v1.93c0 .373.303.721.673.772 0 0 .52.071 1.138.071.619 0 1.139-.071 1.139-.071.37-.052.673-.399.673-.772v-1.93c0-.374.238-.761.529-.862s1.224-.238 1.488.025l1.364 1.365c.265.263.715.284 1.002.045l1.605-1.605c.239-.287.22-.737-.045-1.002l-1.364-1.364c-.264-.264-.37-.704-.237-.978.134-.273.7-1.04 1.074-1.04z" fill="#b3b3b3" fill-rule="evenodd" mask="url(#a)"/></svg>
